X:1
T:Title
%%score ( 1 2 ) { ( 3 5 ) | ( 4 6 ) }
L:1/8
Q:1/4=66
M:2/4
K:Eb
V:1 treble nm="Voice"
V:2 treble 
V:3 treble nm="Piano"
V:5 treble 
V:4 bass 
V:6 bass 
V:1
"^Langsam" z4 | z4 | z4 | z4 |"^cresc." G G/ A/ B c | B B z2 | G G c c | F2 z z/ B/ | e e d c/ B/ | %9
 c G z A | c3/2 G/ (B/A/) G/ F/ | E2 z B |!p! B A B c/ d/ | e2 B B | B A B c/ d/ | e2 z2 | %16
 B B c c/ c/ | d2 B d | !>!e c B =A | B2 z z/ B/ |!p! B A B c/ d/ | e2 B B |!<(! B A B c/ d/ | %23
 e2!<)! z2 |!p! B B c c/ c/ |!<(! (df!<)!!mp! e3/2) c/ | %26
!p! B/G/ E/[Q:1/4=60]"^\n \n\n \n\n" C/[Q:1/4=55]"^\n \n\n \n\n \n\n \n" B3/2 D/ | E2 z2 | z4 |] %29
V:2
 x4 | x4 | x4 | x4 | x4 | x4 | x4 | x4 | x4 | x4 | x4 | x4 | x4 | x4 | x4 | x4 | B2 c3/2 c/ | x4 | %18
 x4 | x4 | x4 | x4 | x4 | x4 | x4 | x4 | x4 | x4 | x4 |] %29
V:3
!p! (B,/G,/B,/G,/) (E/B,/E/B,/) | (G/E/G/E/) (c/E/c/E/) |!p!!<(! (A/C/A/C/) (G/C/G/C/) | %3
 (F/B,/F/B,/)!<)! (F/B,/!>(!F/B,/) | (E/B,/E/!>)!B,/)!p! (E/!<(!B,/E/B,/) | %5
 (E/B,/E/B,/) (E/B,/E/B,/)!<)! | (E/B,/E/B,/) (E/C/E/C/) | (D/C/D/C/) (D/!>(!B,/D/!>)!B,/) | %8
!<(! (E/G/e/G/!<)!!>(! D/F/B/F/)!>)! |!<(! (C/E/c/E/!<)!!>(! D/F/B/F/)!>)! | %10
!<(! (C/E/c/E/)!<)!!>(! (B,/D/A/D/)!>)! |!<(! (G/B,/G/!<)!!>(!B,/ G/B,/G/B,/)!>)! | %12
!pp! (A/B,/A/B,/) (A/B,/A/B,/) | (G/B,/G/B,/ G/B,/G/B,/) | (A/B,/A/B,/ A/B,/A/B,/) | %15
 (G/B,/G/B,/ G/B,/G/B,/) | (B/B,/B/B,/ =A/E/A/E/) | (B/D/B/D/) (B/D/B/D/) | %18
!>(! (=A/E/A/E/ A/E/A/E/)!>)! |!<(! (B/D/B/!<)!D/!>(! B/D/B/D/)!>)! |!pp! (A/B,/A/B,/ A/B,/A/B,/) | %21
 (G/B,/G/B,/ G/B,/G/B,/) |!<(! (A/B,/A/B,/ A/B,/A/B,/) | (G/B,/G/B,/ G/B,/G/B,/) | %24
 (B/G/B/G/ =A/E/A/E/) |!<(! (B/D/B/D/!<)!!mp!!>(! A/E/A/E/)!>)! |!pp! G z!<(! A,/D/G/D/ | %27
 (G/B,/G/B,/!<)!!>(! G/B,/G/B,/ | !fermata![B,EG]4)!>)! |] %29
V:4
 ([E,,E,]2 G,2 | B,2 A,2) | (F,2 E,2 | D,2 B,,2) | E,,2 (G,2 | G,,2 G,2) | (E,2 G,2 | B,2 A,2) | %8
 G,2 B,2 | A,2 B,2 | (E,2 B,,2) | (E,,/B,,/E,/B,,/ E,2) | (D,/B,,/D,/B,,/ D,/B,,/D,/B,,/) | %13
 (E,/B,,/E,/B,,/ E,/B,,/E,/B,,/) | (D,/B,,/D,/B,,/ D,/B,,/D,/B,,/) | %15
 (E,/B,,/E,/B,,/ E,/B,,/E,/B,,/) | (G,/E,/G,/E,/ F,/E,/F,/E,/) | (F,/D,/F,/D,/ F,/D,/F,/D,/) | %18
 (F,/C,/F,/C,/ F,/C,/F,/C,/) | (B,,/F,/B,/F,/ B,/F,/B,/F,/) | (D,/B,,/D,/B,,/ D,/B,,/D,/B,,/) | %21
 (E,/B,,/E,/B,,/ E,/B,,/E,/B,,/) | (D,/B,,/D,/B,,/ D,/B,,/D,/B,,/) | %23
 (E,/B,,/E,/B,,/ E,/B,,/E,/B,,/) | (G,/E,/G,/E,/ F,/E,/F,/E,/) | (F,/D,/F,/D,/ C,/E,/C,/E,/) | %26
 B,, z z/ B,,/F,/B,,/ | E,,4 | !fermata![E,,B,,]4 |] %29
V:5
 x4 | x4 | x4 | x4 | x4 | x4 | x4 | x4 | x4 | x4 | x4 | x4 | x4 | x4 | x4 | x4 | G2 F2 | F4 | F4 | %19
 D2 z2 | x4 | x4 | x4 | x4 | G2 F2 | F2 E2 | E/[I:staff +1]G,/B,/G,/ x[I:staff -1] x | %27
[I:staff +1] G,/B,/G,/[I:staff -1]B,/[I:staff +1] G,/[I:staff -1]B,/[I:staff +1]G,/[I:staff -1]B,/ | %28
 x4 |] %29
V:6
 x4 | x4 | x4 | x4 | x4 | x4 | x4 | x4 | x4 | x4 | x4 | x4 | x4 | x4 | x4 | x4 | x4 | x4 | x4 | %19
 x4 | x4 | x4 | x4 | x4 | x4 | x4 | x2 B,,2 | E,/B,,/E,/B,,/ E,/B,,/E,/B,,/ | x4 |] %29

